cdn/fa/svgs/sharp-thin/down-to-bracket.svg

<svg xmlns="http://www.w3.org/2000/svg" viewBox="0 0 448 512"><!--! Font Awesome Pro 6.5.1 by @fontawesome - https://fontawesome.com License - https://fontawesome.com/license (Commercial License) Copyright 2023 Fonticons, Inc. --><path d="M160 160H144 80 64v16 16L212.7 340.7 224 352l11.3-11.3L384 192V176 160H368 304 288V144 16 0H272 176 160V16 144v16zm0 16h16V160 16h96V160v16h16 80v9.4l-144 144L80 185.4V176h80zM16 328v-8H0v8V504c0 4.4 3.6 8 8 8H440c4.4 0 8-3.6 8-8V328v-8H432v8V496H16V328z"/></svg>

<svg xmlns="http://www.w3.org/2000/svg" viewBox="0 0 448 512"><!--! Font Awesome Pro 6.5.2 by @fontawesome - https://fontawesome.com License - https://fontawesome.com/license (Commercial License) Copyright 2024 Fonticons, Inc. --><path d="M160 160l-16 0-64 0-16 0 0 16 0 16L212.7 340.7 224 352l11.3-11.3L384 192l0-16 0-16-16 0-64 0-16 0 0-16 0-128 0-16L272 0 176 0 160 0l0 16 0 128 0 16zm0 16l16 0 0-16 0-144 96 0 0 144 0 16 16 0 80 0 0 9.4-144 144L80 185.4l0-9.4 80 0zM16 328l0-8L0 320l0 8L0 504c0 4.4 3.6 8 8 8l432 0c4.4 0 8-3.6 8-8l0-176 0-8-16 0 0 8 0 168L16 496l0-168z"/></svg>
